!!!!SEGMENT: pl-cz--i-155--013_anonim--landler-6.krn
!!!cenid: 18xx:2522
!!!COM: Anonim
!!!COM-rismid: pe30004985
!!!CDT:
!!!CNT:
!!!OTL: Ländler 6
!!!PDT:
!!!AGN: Secular
!!!SMS-siglum: PL-CZ
!!!SMS-shelfmark: I-155
!!!SMS-shelfwork: 013 W
!!!SMS-variant:
!!!SMS-altvar:
!!!NIFC-rismid: 1001012531
!!!URL-scan: http://repozytorium.nifc.pl/skany/pl-cz-nut--i-155
!!!ONB-nifc: UWAGA: 10 krótkich Landler numerowanych na pięcioliniach (nr 1-10, odpowiednio 008-017). m.in skan 0026. Uwaga: 5 partii
!!!key:
**kern	**kern	**kern	**kern	**kern
*group2	*group2	*group1	*group1	*group1
*part5	*part4	*part3	*part2	*part1
*staff5	*staff4	*staff3	*staff2	*staff1
*Icor	*Icor	*Ifagot	*Iclars	*Iclars
*I"Corno Secondo	*I"Corno Primo.	*I"Fagotto	*I"Clarinetto 2do	*I"Clarinetto Primo
*I'cor 2	*I'cor 1	*I'fag	*I'cl 2	*I'cl 1
*clefG2	*clefG2	*clefF4	*clefG2	*clefG2
*ITrd5c9	*ITrd5c9	*	*ITrd1c2	*ITrd1c2
*k[b-]	*k[b-]	*k[b-]	*k[b-]	*k[b-]
*F:	*F:	*F:	*F:	*F:
*M3/4	*M3/4	*M3/4	*M3/4	*M3/4
*	*	*	*2\right	*2\right
!	!	!	!	!LO:TX:t=P:problem:all\right:global
4ryy	4ryy	4ryy	8f/L	8a\L
.	.	.	8g/J	8b-\J
=1	=1	=1	=1	=1
2.ryy	2.ryy	2.ryy	4.a\	4.cc\
.	.	.	8b-\L	8dd\L
.	.	.	8a\	8cc\
.	.	.	8g\J	8b-\J
=2	=2	=2	=2	=2
2.ryy	2.ryy	2.ryy	8f/L	8a\L
.	.	.	8a/J	8cc\
.	.	.	8a\L	8ff\
.	.	.	8cc\	8ee\
.	.	.	8b-\	8dd\
.	.	.	8a\J	8cc\J
=3	=3	=3	=3	=3
2.ryy	2.ryy	2.ryy	8g\L	8b-\L
.	.	.	8b-\J	8dd\
*	*	*	*2\right	*
*	*	*	*tremolo	*
.	.	.	8cc\L	8aa\
.	.	.	8b-\	8gg\
.	.	.	8cc\	8ee\
.	.	.	8b-\J	8cc\J
*	*	*	*Xtremolo	*
=4	=4	=4	=4	=4
2.ryy	2.ryy	2.ryy	8a\L	8ff\L
.	.	.	8cc\J	8aa\J
.	.	.	4a\	4ff\
.	.	.	8f\L	8a\L
.	.	.	8g\J	8b-\J
=5	=5	=5	=5	=5
2.ryy	2.ryy	2.ryy	4.a\	4.cc\
.	.	.	8b-\L	8dd\L
.	.	.	8a\	8cc\
.	.	.	8g\J	8b-\J
=6	=6	=6	=6	=6
2.ryy	2.ryy	2.ryy	8f\L	8a\L
.	.	.	8a\	8cc\
.	.	.	8a\	8ff\
.	.	.	8cc\	8ee\
.	.	.	8b-\	8dd\
.	.	.	8a\J	8cc\J
=7	=7	=7	=7	=7
2.ryy	2.ryy	2.ryy	8g\L	8b-\L
.	.	.	8b-\	8dd\
.	.	.	8cc\	8aa\
.	.	.	8b-\	8gg\
.	.	.	8cc\	8ee\
.	.	.	8b-\J	8cc\J
=8	=8	=8	=8	=8
2ryy	2ryy	2ryy	2a\	2ff\
!	!	!	!LO:LB:g=original	!LO:LB:g=original
=:|!|:	=:|!|:	=:|!|:	=:|!|:	=:|!|:
4ryy	4ryy	4ryy	4a\	4cc\
=9	=9	=9	=9	=9
2.ryy	2.ryy	2.ryy	8b-\L	8dd\L
.	.	.	8dd\	8ff\
.	.	.	8dd\	8ff\
.	.	.	8ff\J	8bb-\J
.	.	.	4b-\	4dd\
=10	=10	=10	=10	=10
2.ryy	2.ryy	2.ryy	8a\L	8cc\L
.	.	.	8cc\	8ff\
.	.	.	8cc\	8ff\
.	.	.	8ff\J	8aa\J
.	.	.	4a\	4cc\
=11	=11	=11	=11	=11
2.ryy	2.ryy	2.ryy	8g\L	8b-\L
.	.	.	8b-\	8ee\
.	.	.	8b-\	8ee\
.	.	.	8ee\	8gg\J
.	.	.	8b-\	4b-\
.	.	.	8g\J	.
=12	=12	=12	=12	=12
2.ryy	2.ryy	2.ryy	8f\L	8a\L
.	.	.	8a\	8cc\
.	.	.	8a\	8ff\
.	.	.	8g\	8ee\
.	.	.	8a\	8ff\
.	.	.	8cc\J	8aa\J
=13	=13	=13	=13	=13
2.ryy	2.ryy	2.ryy	8b-\L	8dd\L
.	.	.	8dd\	8ff\
.	.	.	8dd\	8ff\
.	.	.	8ff\J	8bb-\J
.	.	.	4b-\	4dd\
=14	=14	=14	=14	=14
2.ryy	2.ryy	2.ryy	8a\L	8cc\L
.	.	.	8cc\	8ff\
.	.	.	8cc\	8ff\
.	.	.	8ff\J	8aa\J
.	.	.	4a\	4cc\
=15	=15	=15	=15	=15
*	*	*	*tremolo	*
2.ryy	2.ryy	2.ryy	8b-\L	8b-\L
.	.	.	8cc\	8ee\
.	.	.	8b-\	8ee\
.	.	.	8cc\	8gg\
.	.	.	8b-\	8cc\
.	.	.	8cc\J	8ee\J
*	*	*	*Xtremolo	*
=16	=16	=16	=16	=16
2ryy	2ryy	2ryy	2a\	2ff\
==	==	==	==	==
*-	*-	*-	*-	*-
!!!system-decoration: [(g1)][(g2)]
!!!RDF**kern: | = vertical stroke
!!!RDF**kern: > = above
!!!RDF**kern: < = below
!!!AIN: 2 clars 2 cor 1 fagot
!!!ENC: Krzysztof Stępień
!!!END: 2021-06-16
!!!EED: Antoni Szymański
!!!EST: 2021-06-22
